!!!OTL: Changgong ge
!!!ARE: Asia, China,ÿGuangdong, Renhua
!! II, 390
!!!SCT: C1509
!!!YEM: Copyright 1995, estate of Helmut Schaffrath.
**kern
*ICvox
*Ivox
!! Mixed meters:  3/8; 2/4; 3/4
*M3/8
*k[f#c#]
*D:
{8b
4a
=1
8b
4ee
=2
*M2/4
4ee
4b
=3
*M3/8
8a
8b
8r}
=4
*M2/4
{8ee
16b
16dd
8ee
8ee
=5
*M3/4
4b
16dd
16b
8a
8a
8r}
=6
*M3/8
{8b
4a
=7
8b
4ee
=8
*M2/4
4ee
4b
=9
*M3/8
8a
8b
8r}
=10
*M2/4
{8ee
16b
16dd
8ee
8ee
=11
4b
16dd
16b
8a
8a
8r}
==
!!!AGN: Xiaodiao, Yuejie ge
!!!AMT: irregular
!!!AIN: vox
!!!EED: Helmut Schaffrath
!!!EEV: 1.0
*-
